X: 1224
T: Karcığar Seyir
C: Rauf Yektâ
O: Turkey
F: http://compmusic.upf.edu/node/140
N: karcigar--seyir--semai--1--rauf_yekta
N: makam= karcigar
N: form= seyir
N: usul= semai = 3/4
M: 3/4
L: 1/16
K: C _2/4B _3/4e ^3/4f 
Q: 1/4=120
%%MIDI tuningsystem comma53
c8 d4  | d8 e4  | d8 c4  | B4 A8  | B4 c4 d4  | \
w:   |   |   |   |   | 
e4 f4 g4  | f8 e4  | d8 z4  | d8 g4  | f4 g4 a4  | 
w:   |   |   |   |   | 
g8 f4  | e4 d4 c4  | B4 c4 d4  | e4 d4 c4  | \
w:   |   |   |   | 
B8 A4  | A8 z4  | d4 =e4 e4  | =e4 a4 e4  | 
w:   |   |   |   | 
=e8 d4  | e4 d4 c4  | d4 e4 f4  | g4 a4 g4  | \
w:   |   |   |   | 
f8 =e4  | d8 z4  | e4 d4 c4  | B4 A8  | B4 c4 d4  | 
w:   |   |   |   |   | 
e4 d4 c4  | g4 f4 e4  | d4 c8  | B8 A4  | A8 z4  | |


